X: 1115
T: The Ivory Flute
B: max new tunes
B: steve tunes
M:6/8
Q: 3/8=100
K:G
V:1 
|:B|"G"ded G3|edB "D"dBA|"G"G3 "C"edB|"D"edA A2B|
 "G"ded G3|edB deg|G3 "C"edB|"D"dBA A2:|
 |:B|"G"deg "Em"a2b|"C"age "D"deg|"G"G3 "Em"G3|"Em"edB "D"dBA|
 "G"deg "Em"a2b|"C"age "D"deg|"G"G3 "C"edB|"D"dBA A2:|
% abcbook-tune_id 62b5b3cc67c26c6f35970c2a


% abcbook-boost 10
% abcbook-tablature 
% abcbook-transpose 0
% abcbook-lastupdated 1656133967399
% abcbook-soundfonts 
% abcbook-repeats 3


